images/soliq.svg

<svg width="136" height="68" viewBox="0 0 136 68" fill="none" xmlns="http://www.w3.org/2000/svg">
<path d="M91.3429 27.3705C91.3706 28.124 91.3197 28.8783 91.1912 29.6213C90.759 32.6716 88.7826 34.3461 86.0343 35.2197C83.6287 35.9781 81.1245 36.1222 78.6112 36.0903C78.5156 36.0903 78.4186 36.0903 78.3215 36.0812C78.1031 36.0615 77.9893 36.148 77.9726 36.374C77.9529 36.6258 78.1243 36.6015 78.2866 36.6182C79.9035 36.7699 81.5113 36.6667 83.1175 36.4847C84.607 36.3148 86.104 36.1813 87.5237 35.6338C88.4507 35.2617 89.33 34.7805 90.1432 34.2005C90.1902 34.4811 90.0764 34.6798 90.0097 34.88C89.6593 35.9538 89.3317 37.0383 88.684 37.9833C87.4949 39.7184 85.8022 40.4268 83.7455 40.4344C81.6887 40.4419 79.6654 40.0855 77.6374 39.7988C77.397 39.7722 77.158 39.7332 76.9215 39.682C76.5894 39.6017 76.4559 39.8337 76.4028 40.0552C76.3376 40.3267 76.6242 40.2705 76.7683 40.31C79.8777 41.1351 83.0204 41.6098 86.2269 41.1958C86.3315 41.3657 86.2102 41.4324 86.145 41.5128C85.6062 42.1982 85.0132 42.8393 84.3719 43.43C83.2828 44.4068 81.9663 44.5251 80.6012 44.4204C78.8311 44.2824 77.2249 43.5983 75.6399 42.8642C75.386 42.7607 75.1393 42.6406 74.9012 42.5047C74.5978 42.3136 74.3597 42.3713 74.2141 42.6564C74.0685 42.9416 74.4007 42.9734 74.5478 43.0644C76.6788 44.3658 78.9646 45.2546 81.4506 45.5929C81.5871 45.6111 81.7858 45.5732 81.8449 45.7218C81.9223 45.9114 81.7039 45.9872 81.5992 46.0873C79.72 47.9075 76.9261 48.1319 74.5372 46.6728C73.7554 46.1884 73.0413 45.6024 72.4137 44.93C72.2711 44.7784 72.165 44.475 71.8419 44.7541C71.5385 45.0089 71.7509 45.1712 71.8874 45.3608C73.1812 47.1491 74.93 48.2548 77.055 48.7963C77.0997 48.8113 77.1433 48.8296 77.1854 48.8509C77.1854 48.8873 77.2036 48.9358 77.1854 48.9449C76.239 49.6532 75.203 50.1583 74.0002 50.2175C73.1326 50.2584 72.4046 49.8701 71.7615 49.3196C71.0452 48.6905 70.4207 47.964 69.9065 47.1612C69.82 47.0292 69.8125 46.6698 69.4863 46.8579C69.2012 47.0201 69.1678 47.2325 69.3347 47.5434C70.0931 48.9935 71.0152 50.3009 72.309 51.3126C72.6352 51.5674 72.6003 51.6994 72.309 51.9102C70.974 52.8513 69.4857 53.5534 67.9104 53.9851C67.7858 54.0186 67.6541 54.0154 67.5312 53.976C66.0169 53.5642 64.5838 52.8974 63.2934 52.0042C62.7747 51.6372 62.7883 51.6281 63.257 51.2383C64.4678 50.2126 65.4496 48.944 66.1388 47.5146C66.2238 47.3432 66.3345 47.1809 66.1388 46.9928C65.9432 46.8048 65.8052 46.7229 65.6247 47.0217C65.1213 47.8509 64.4989 48.6016 63.7772 49.2498C62.5881 50.3237 61.2716 50.4769 59.8337 49.8413C59.2397 49.5832 58.6752 49.2618 58.1501 48.8827C58.93 48.698 59.6855 48.4221 60.4009 48.0606C61.6829 47.4312 62.7884 46.493 63.618 45.3305C63.7697 45.1181 63.888 44.9513 63.6089 44.7238C63.3298 44.4963 63.2312 44.7435 63.1068 44.8754C61.8661 46.2026 60.4388 47.1976 58.602 47.5237C56.7379 47.8559 55.162 47.3235 53.8167 46.0282C53.7287 45.9432 53.5618 45.8765 53.6028 45.7339C53.6437 45.5914 53.8182 45.6141 53.941 45.5959C55.0914 45.4321 56.2246 45.164 57.3264 44.7951C58.6187 44.3582 59.8064 43.703 60.9803 43.025C61.1047 42.9522 61.4354 42.934 61.2625 42.6443C61.1335 42.4365 60.9591 42.306 60.6557 42.4562C59.636 42.9783 58.5837 43.4343 57.5054 43.8213C56.2435 44.2612 54.9557 44.516 53.6104 44.428C52.6982 44.3913 51.8245 44.0501 51.1289 43.4588C50.3783 42.784 49.6978 42.0349 49.098 41.2231C49.9656 41.2686 50.7285 41.3323 51.493 41.3444C54.0002 41.3808 56.4361 40.903 58.8478 40.2827C58.96 40.2523 59.1511 40.2448 59.0631 40.0521C58.9752 39.8595 58.9115 39.6259 58.5854 39.682C57.9787 39.7897 57.372 39.8732 56.7652 39.9596C54.8496 40.2341 52.9369 40.5436 50.9864 40.3964C48.7112 40.2235 47.1838 39.0177 46.2328 37.0141C45.8203 36.1043 45.4943 35.1577 45.2591 34.1868C45.7778 34.5053 46.1934 34.7723 46.6242 35.0195C48.1106 35.8795 49.7532 36.1996 51.4308 36.3846C53.3085 36.5924 55.1848 36.8214 57.0777 36.6151C57.2415 36.5985 57.5039 36.7259 57.5009 36.3876C57.4978 36.0494 57.2552 36.0737 57.0231 36.0843C54.7623 36.1628 52.5007 35.9559 50.2917 35.4685C48.8634 35.1666 47.5283 34.5269 46.3982 33.6028C44.7525 32.2378 44.2428 30.3752 44.1306 28.3473C44.1154 28.0773 44.1306 27.8043 44.1306 27.5419C44.2337 27.4736 44.2929 27.5419 44.3505 27.5904C46.5165 29.6941 49.1738 30.8939 52.0193 31.7387C53.5238 32.1735 55.0637 32.475 56.6212 32.6397C56.8123 32.6625 57.0762 32.8156 57.1156 32.4122C57.1444 32.0664 56.9306 32.0618 56.6955 32.036C53.8697 31.7327 51.2063 30.8712 48.6763 29.6092C46.6606 28.6112 45.0619 27.1672 44.3308 24.9588C43.8166 23.3935 43.985 21.8161 44.2762 20.2477C44.3225 20.2402 44.37 20.2472 44.4122 20.2679C44.4543 20.2885 44.4889 20.3218 44.5113 20.363C47.519 24.1959 51.5036 26.5469 56.0873 27.9878C56.5423 28.1395 57.0201 28.2456 57.4796 28.3897C57.7208 28.4656 57.8346 28.3897 57.9134 28.1637C58.0044 27.9059 57.8376 27.8604 57.6647 27.7982C56.9478 27.5393 56.2354 27.2784 55.5276 27.0155C52.7746 26.0054 50.3008 24.522 48.3017 22.3773C46.1964 20.1158 45.611 17.4084 46.4452 14.4264C46.6939 13.53 47.3097 12.8535 47.8982 12.1695C47.9726 12.083 48.0772 12.1209 48.1713 12.124C48.2395 12.7307 48.5398 13.2555 48.825 13.7727C50.0232 15.9432 51.6401 17.8057 53.3116 19.6213C55.3001 21.7827 57.5919 23.5786 60.0506 25.1651C60.6952 25.5807 61.2958 26.0751 62.0299 26.3482C62.0299 26.5438 61.8889 26.6682 61.7873 26.8108C61.2241 27.5963 60.8227 28.4859 60.6063 29.4279C60.3899 30.37 60.3628 31.3456 60.5266 32.2981C60.6905 33.2507 61.042 34.1612 61.5607 34.9768C62.0794 35.7923 62.755 36.4967 63.5482 37.0489C63.6847 37.1445 63.8045 37.3007 64.0503 37.2628C63.7955 35.9541 63.9756 34.598 64.5629 33.4011C65.1696 32.1756 66.1313 31.2777 67.3705 30.5405C67.1187 30.4631 66.9837 30.4085 66.8441 30.3888C65.2242 30.0688 65.1636 28.1137 65.793 27.1839C65.8749 27.0626 65.9447 26.9109 66.0964 27.1263C66.8138 28.0773 67.8316 28.6536 68.8023 29.2877C69.9035 30.0051 70.9697 30.7589 71.6371 31.9374C71.7296 32.1013 71.8828 32.2969 71.7888 32.4713C71.6948 32.6458 71.4642 32.5153 71.3004 32.5077C70.3327 32.4668 69.4606 32.6185 68.9251 33.5573C68.1106 34.9846 68.6991 36.7774 70.2174 37.5389C70.3612 37.6226 70.5251 37.6653 70.6915 37.6623C70.8578 37.6594 71.0201 37.6109 71.1609 37.5222C72.0754 37.0343 72.8758 36.3578 73.5093 35.5373C74.1427 34.7169 74.5946 33.7712 74.835 32.763C75.0755 31.7548 75.0991 30.707 74.9042 29.6889C74.7093 28.6709 74.3004 27.7059 73.7045 26.8578C73.5953 26.7061 73.4345 26.5711 73.439 26.3558C73.5695 26.2966 73.706 26.2496 73.8288 26.1783C78.4459 23.4999 82.438 19.8666 85.5383 15.5215C86.2845 14.4749 87.0004 13.398 87.3008 12.1118C87.5753 12.1361 87.7027 12.3636 87.8604 12.535C89.3605 14.167 89.5759 16.1237 89.2407 18.1971C88.8205 20.7862 87.2689 22.6078 85.2273 24.1261C83.0265 25.7703 80.5754 26.8866 77.9863 27.7421C77.8119 27.8012 77.4797 27.7588 77.5449 28.1228C77.5965 28.4155 77.7664 28.4565 78.0394 28.3821C80.1932 27.7936 82.2863 27.0747 84.2384 25.9553C86.5469 24.6251 88.6947 23.1023 90.4268 21.0501C90.5406 20.9151 90.6437 20.7695 90.759 20.636C90.8742 20.5026 90.9213 20.3175 91.1518 20.2174C91.2914 20.4798 91.2747 20.7725 91.3156 21.041C91.6857 23.4678 91.3551 25.7081 89.5835 27.5631C88.4247 28.7765 87.0217 29.6153 85.4761 30.2326C83.298 31.1032 81.0775 31.8237 78.7219 32.0527C78.4732 32.0755 78.3412 32.1468 78.3625 32.4334C78.3837 32.755 78.59 32.6867 78.7735 32.664C82.4092 32.2241 85.8629 31.2625 88.9828 29.2907C89.8419 28.745 90.634 28.1005 91.3429 27.3705Z" fill="#1E2D56"/>
<path d="M86.8524 12.018C74.1227 12.014 61.3935 12.0134 48.6648 12.0165C48.498 12.0165 48.3038 11.9391 48.1719 12.1196C48.2401 12.7263 48.5404 13.2511 48.8256 13.7683C50.0238 15.9434 51.6407 17.806 53.3122 19.6215C55.3007 21.7829 57.5925 23.5788 60.0512 25.1653C60.6958 25.5809 61.2964 26.0754 62.0306 26.3484C62.5614 25.9389 63.0013 25.4232 63.5579 25.0394C65.0281 24.0131 66.8252 23.5654 68.605 23.7821C70.3848 23.9987 72.022 24.8644 73.203 26.2134C73.2668 26.2862 73.332 26.3651 73.4427 26.3484C73.5731 26.2892 73.7096 26.2422 73.8325 26.1709C78.4496 23.4925 82.4417 19.8593 85.5419 15.5141C86.2882 14.4676 87.0041 13.3907 87.3044 12.1045C87.177 11.9513 87.0041 12.018 86.8524 12.018ZM59.5506 18.0107C59.3645 18.008 59.1867 17.9334 59.0543 17.8025C58.922 17.6716 58.8455 17.4946 58.8408 17.3085C58.847 17.1221 58.9229 16.9448 59.0535 16.8117C59.1841 16.6786 59.3599 16.5993 59.5461 16.5895C59.8616 16.5895 60.259 16.9884 60.2681 17.3191C60.2566 17.5043 60.1758 17.6783 60.0417 17.8065C59.9076 17.9347 59.7301 18.0076 59.5446 18.0107H59.5506ZM63.0771 18.2837C62.8186 18.2648 62.577 18.1478 62.4019 17.9566C62.2268 17.7655 62.1314 17.5146 62.1352 17.2554C62.1455 17.0119 62.2518 16.7825 62.4309 16.6173C62.61 16.4521 62.8473 16.3647 63.0908 16.3741C63.561 16.3863 64.0357 16.855 64.0327 17.3039C64.0221 17.7862 63.5291 18.2928 63.0711 18.2837H63.0771ZM69.1942 17.624C68.853 17.7893 68.7225 18.0289 68.8499 18.4036C68.9409 18.6705 68.7786 18.7069 68.5284 18.6675C68.1932 18.4824 67.9566 18.6356 67.7776 18.9708C67.6684 19.1756 67.5121 19.162 67.4272 18.9708C67.2755 18.625 67.0753 18.4749 66.687 18.5932C66.4656 18.6584 66.3215 18.5173 66.411 18.2898C66.5626 17.9197 66.3988 17.7225 66.0985 17.5481C65.8725 17.4177 65.9104 17.2705 66.138 17.1735C66.4898 17.0218 66.5505 16.7533 66.4595 16.4151C66.3685 16.0769 66.5187 16.0587 66.7629 16.1633C67.092 16.3074 67.3165 16.2058 67.4773 15.9039C67.6198 15.634 67.7715 15.6264 67.9111 15.9039C68.0506 16.1815 68.2599 16.3362 68.6103 16.2073C68.8332 16.1224 68.9819 16.2649 68.8924 16.4849C68.7407 16.8701 68.8924 17.0916 69.1958 17.2751C69.3884 17.3949 69.399 17.5223 69.1882 17.624H69.1942ZM72.3233 18.2853C72.199 18.2824 72.0766 18.2546 71.9632 18.2037C71.8498 18.1527 71.7477 18.0795 71.663 17.9885C71.5784 17.8975 71.5128 17.7904 71.4701 17.6736C71.4275 17.5568 71.4087 17.4326 71.4148 17.3085C71.4133 17.1845 71.4368 17.0616 71.4839 16.9469C71.5309 16.8323 71.6006 16.7282 71.6887 16.6411C71.7768 16.5539 71.8815 16.4853 71.9967 16.4395C72.1118 16.3936 72.235 16.3714 72.3589 16.3741C72.4828 16.3769 72.6049 16.4046 72.7179 16.4555C72.8309 16.5064 72.9325 16.5795 73.0166 16.6705C73.1008 16.7615 73.1658 16.8685 73.2077 16.9852C73.2496 17.1018 73.2676 17.2257 73.2607 17.3494C73.2617 17.4732 73.238 17.596 73.1908 17.7105C73.1437 17.825 73.0741 17.9289 72.9862 18.0162C72.8983 18.1034 72.7938 18.1721 72.6789 18.2183C72.564 18.2645 72.4411 18.2873 72.3173 18.2853H72.3233ZM75.9924 18.0107C75.8958 18.0158 75.7991 18.0014 75.7082 17.9684C75.6173 17.9353 75.5339 17.8843 75.4631 17.8183C75.3924 17.7524 75.3356 17.6728 75.2962 17.5844C75.2569 17.4961 75.2357 17.4007 75.234 17.3039C75.234 16.9672 75.6147 16.6032 75.9681 16.6032C76.0605 16.6055 76.1516 16.6262 76.2359 16.664C76.3203 16.7019 76.3963 16.7561 76.4595 16.8235C76.5227 16.891 76.5719 16.9703 76.6042 17.057C76.6365 17.1436 76.6513 17.2358 76.6476 17.3282C76.6509 17.4169 76.6362 17.5054 76.6044 17.5883C76.5726 17.6712 76.5243 17.7468 76.4626 17.8105C76.4008 17.8743 76.3267 17.9249 76.2449 17.9593C76.1631 17.9937 76.0751 18.0112 75.9863 18.0107H75.9924Z" fill="#CBAA97"/>
</svg>

<svg xmlns="http://www.w3.org/2000/svg" width="136" height="68" fill="none"><path fill="#1E2D56" d="M91.343 27.37c.028.754-.023 1.508-.152 2.251-.432 3.05-2.408 4.725-5.157 5.599-2.405.758-4.91.902-7.423.87-.095 0-.192 0-.29-.009-.218-.02-.332.067-.348.293-.02.252.151.227.314.244 1.616.152 3.224.049 4.83-.133 1.49-.17 2.987-.304 4.407-.851a12.584 12.584 0 0 0 2.62-1.434c.046.281-.068.48-.134.68-.35 1.074-.678 2.158-1.326 3.103-1.19 1.735-2.882 2.444-4.938 2.451-2.057.008-4.08-.348-6.109-.635a7.046 7.046 0 0 1-.716-.117c-.332-.08-.465.152-.518.373-.065.272.221.215.365.255 3.11.825 6.252 1.3 9.459.886.105.17-.017.236-.082.317a16.315 16.315 0 0 1-1.773 1.917c-1.09.977-2.406 1.095-3.77.99-1.77-.138-3.377-.822-4.962-1.556a6.248 6.248 0 0 1-.739-.36c-.303-.19-.541-.133-.687.152-.145.286.187.317.334.408 2.13 1.302 4.417 2.19 6.903 2.529.136.018.335-.02.394.129.077.19-.141.265-.246.365-1.879 1.82-4.673 2.045-7.062.586a10.391 10.391 0 0 1-2.123-1.743c-.143-.152-.249-.455-.572-.176-.303.255-.091.417.045.607 1.294 1.788 3.043 2.894 5.168 3.435a.979.979 0 0 1 .13.055c0 .036.019.085 0 .094-.946.708-1.982 1.213-3.185 1.273-.867.04-1.595-.348-2.239-.898a10.181 10.181 0 0 1-1.855-2.159c-.086-.132-.094-.491-.42-.303-.285.162-.318.375-.151.685.758 1.45 1.68 2.758 2.974 3.77.326.254.291.386 0 .597a14.104 14.104 0 0 1-4.399 2.075.671.671 0 0 1-.379-.009 13.816 13.816 0 0 1-4.238-1.972c-.518-.367-.505-.376-.036-.766a11.328 11.328 0 0 0 2.882-3.723c.085-.172.196-.334 0-.522s-.334-.27-.514.029a9.9 9.9 0 0 1-1.848 2.228c-1.189 1.074-2.505 1.227-3.943.591a9.012 9.012 0 0 1-1.684-.958c.78-.185 1.535-.46 2.25-.822a8.619 8.619 0 0 0 3.218-2.73c.152-.213.27-.38-.01-.607-.278-.228-.377.02-.501.151-1.24 1.328-2.668 2.323-4.505 2.649-1.864.332-3.44-.2-4.785-1.496-.088-.085-.255-.151-.214-.294.04-.143.215-.12.338-.138a19.178 19.178 0 0 0 3.385-.8c1.293-.438 2.48-1.093 3.654-1.771.125-.073.455-.091.283-.38-.13-.209-.304-.339-.607-.189a26.71 26.71 0 0 1-3.15 1.365c-1.263.44-2.55.695-3.896.607a4.085 4.085 0 0 1-2.481-.97 14.964 14.964 0 0 1-2.031-2.235c.868.046 1.63.11 2.395.121 2.507.037 4.943-.441 7.355-1.061.112-.03.303-.038.215-.23-.088-.194-.152-.427-.478-.371-.606.108-1.213.191-1.82.278-1.915.274-3.828.584-5.779.436-2.275-.172-3.802-1.378-4.753-3.382a15.929 15.929 0 0 1-.974-2.827c.519.318.934.585 1.365.833 1.487.86 3.13 1.18 4.807 1.365 1.878.207 3.754.436 5.647.23.163-.017.426.11.423-.227-.003-.339-.246-.314-.478-.304a26.908 26.908 0 0 1-6.731-.616 9.135 9.135 0 0 1-3.894-1.865c-1.646-1.365-2.155-3.228-2.267-5.256-.016-.27 0-.543 0-.805.103-.068.162 0 .22.048 2.166 2.104 4.823 3.304 7.668 4.149 1.505.434 3.045.736 4.602.9.191.023.455.177.495-.227.028-.346-.185-.35-.42-.376-2.826-.303-5.49-1.165-8.02-2.427-2.015-.998-3.614-2.442-4.345-4.65-.514-1.566-.346-3.143-.055-4.711a.226.226 0 0 1 .235.115c3.008 3.833 6.993 6.184 11.576 7.625.455.152.933.258 1.393.402.24.076.355 0 .433-.226.091-.258-.075-.304-.248-.366-.717-.259-1.43-.52-2.137-.782-2.753-1.01-5.227-2.494-7.226-4.639-2.106-2.261-2.691-4.969-1.857-7.95.249-.897.865-1.573 1.453-2.258.075-.086.18-.048.273-.045.069.607.369 1.131.654 1.649 1.198 2.17 2.815 4.033 4.487 5.848 1.988 2.162 4.28 3.958 6.739 5.544.644.416 1.245.91 1.979 1.183 0 .196-.141.32-.243.463a7.294 7.294 0 0 0 1.761 10.238c.137.096.256.252.502.214a6.114 6.114 0 0 1 .513-3.862c.607-1.225 1.568-2.123 2.808-2.86-.252-.078-.387-.133-.527-.152-1.62-.32-1.68-2.275-1.051-3.205.082-.121.152-.273.303-.058.718.951 1.736 1.528 2.706 2.162 1.101.717 2.168 1.47 2.835 2.65.093.163.246.359.152.533-.094.175-.325.044-.489.037-.967-.041-1.84.11-2.375 1.05-.814 1.427-.226 3.22 1.292 3.98a.91.91 0 0 0 .944-.016 7.32 7.32 0 0 0 2.543-10.664c-.109-.152-.27-.287-.265-.502.13-.06.267-.106.39-.178a37.501 37.501 0 0 0 11.71-10.657c.745-1.046 1.461-2.123 1.762-3.41.274.025.402.253.56.424 1.5 1.632 1.715 3.589 1.38 5.662-.42 2.59-1.972 4.41-4.014 5.93-2.2 1.643-4.652 2.76-7.24 3.615-.175.06-.507.017-.442.38.052.294.221.334.494.26 2.154-.588 4.247-1.307 6.2-2.427 2.308-1.33 4.456-2.853 6.188-4.905.114-.135.217-.28.332-.414.115-.133.162-.319.393-.419.14.263.123.556.164.824.37 2.427.04 4.667-1.733 6.522-1.158 1.213-2.561 2.052-4.107 2.67-2.178.87-4.398 1.59-6.754 1.82-.249.023-.38.094-.36.38.022.322.228.254.412.231 3.635-.44 7.089-1.402 10.209-3.373.859-.546 1.651-1.19 2.36-1.92Z"/><path fill="#CBAA97" d="M86.852 12.018c-12.73-.004-25.459-.005-38.187-.002-.167 0-.361-.077-.493.104.068.606.368 1.131.654 1.648 1.198 2.175 2.815 4.038 4.486 5.854 1.989 2.16 4.28 3.957 6.74 5.543.644.416 1.244.91 1.979 1.183.53-.41.97-.925 1.527-1.309a7.28 7.28 0 0 1 9.645 1.174c.064.073.129.152.24.135.13-.059.267-.106.39-.177a37.499 37.499 0 0 0 11.709-10.657c.746-1.046 1.462-2.123 1.762-3.41-.127-.153-.3-.086-.452-.086Zm-27.301 5.993a.72.72 0 0 1-.71-.703.745.745 0 0 1 .705-.718c.316 0 .713.398.722.73a.737.737 0 0 1-.723.69h.006Zm3.526.273a1.016 1.016 0 0 1-.942-1.029.92.92 0 0 1 .956-.88c.47.011.945.48.942.929-.01.482-.504.989-.962.98h.006Zm6.117-.66c-.341.165-.472.405-.344.78.09.267-.071.303-.322.264-.335-.186-.571-.032-.75.303-.11.205-.266.191-.35 0-.153-.346-.353-.496-.741-.378-.221.065-.365-.076-.276-.303.152-.37-.012-.567-.313-.742-.225-.13-.188-.277.04-.374.352-.152.412-.42.322-.759-.091-.338.059-.356.303-.252.329.144.553.043.714-.26.143-.269.294-.277.434 0 .14.278.349.433.7.304.222-.085.37.058.281.278-.151.385 0 .607.304.79.192.12.203.247-.008.349h.006Zm3.13.661a.932.932 0 0 1-.91-.977.922.922 0 0 1 1.603-.637.922.922 0 0 1 .244.678.928.928 0 0 1-.944.936h.006Zm3.668-.274a.722.722 0 0 1-.758-.707c0-.337.38-.7.734-.7a.697.697 0 0 1 .68.724.658.658 0 0 1-.662.683h.006Z"/></svg>
